src/main/resources/icons/JavaeeAppServersTcServerIcons/icons/browser_logo_sts_16.svg

<svg xmlns="http://www.w3.org/2000/svg" width="16" height="16" viewBox="0 0 16 16">
  <g fill="none" fill-rule="evenodd">
    <circle cx="8" cy="8" r="7" fill="#03786D" fill-rule="nonzero"/>
    <path fill="#FFF" fill-rule="nonzero" d="M5.63273919,5.7 L5,5.7 L4.83730801,5.58286177 C5.44776747,5.11645074 6.6351905,4.8 8,4.8 L8,5.3 C7.04128945,5.3 6.19709604,5.47260647 5.63273919,5.7 Z M8,7.3 L8,7.8 L8,7.3 Z"/>
    <polygon fill="#FFF" fill-rule="nonzero" points="5.021 4.475 5.021 5.572 4.521 5.977 4.521 4.638" transform="scale(-1 1) rotate(54 0 -4.138)"/>
    <path fill="#FFF" fill-rule="nonzero" d="M7.9994888,12.1129439 L7.99508497,12.1190053 L3.95,9.180079 L4.24389263,8.7755705 L7.9994888,11.5041708 L11.755085,8.7755705 L12.0489776,9.180079 L8.00389263,12.1190053 L7.9994888,12.1129439 Z"/>
    <path fill="#FFF" fill-rule="nonzero" d="M7.9994888,10.6129444 L7.99508497,10.6190058 L3.95,7.6800795 L4.24389263,7.275571 L7.9994888,10.0041713 L11.755085,7.275571 L12.0489776,7.6800795 L8.00389263,10.6190058 L7.9994888,10.6129444 Z"/>
    <path fill="#FFF" fill-rule="nonzero" d="M7.9994888,9.11294441 L7.99508497,9.11900576 L3.95,6.1800795 L4.24389263,5.775571 L7.9994888,8.50417134 L11.755085,5.775571 L12.0489776,6.1800795 L8.00389263,9.11900576 L7.9994888,9.11294441 Z"/>
    <rect width="1" height="1.5" x="3.95" y="4.68" fill="#FFF" fill-rule="nonzero"/>
    <g fill="#FFF" fill-rule="nonzero" transform="matrix(-1 0 0 1 13 4)">
      <path d="M2.63273919,1.7 L2,1.7 L1.83730801,1.58286177 C2.44776747,1.11645074 3.6351905,0.8 5,0.8 L5,1.3 C4.04128945,1.3 3.19709604,1.47260647 2.63273919,1.7 Z M5,3.3 L5,3.8 L5,3.3 Z"/>
      <polygon points="2.021 .475 2.021 1.572 1.521 1.977 1.521 .638" transform="scale(-1 1) rotate(54 0 -2.25)"/>
      <rect width="1" height="1.5" x=".95" y=".68"/>
    </g>
  </g>
</svg>

<svg xmlns="http://www.w3.org/2000/svg" width="16" height="16" viewBox="0 0 16 16"><rect id="frame" width="16" height="16" fill="none"/><g fill="none" fill-rule="nonzero"><circle cx="8" cy="8" r="7" fill="#03786D"/><path fill="#FFF" d="M5.633 5.7H5l-.163-.117C5.447 5.116 6.635 4.8 8 4.8v.5c-.959 0-1.803.173-2.367.4zM8 7.3v.5-.5z"/><path fill="#FFF" d="M4.017 4.987l.887.644.622-.166-1.083-.787z"/><path fill="#FFF" d="M8 12.113l-.005.006L3.95 9.18l.294-.404 3.755 2.728 3.756-2.728.294.404-4.045 2.939-.005-.006z"/><path fill="#FFF" d="M8 10.613l-.005.006L3.95 7.68l.294-.404 3.755 2.728 3.756-2.728.294.404-4.045 2.939-.005-.006z"/><path fill="#FFF" d="M8 9.113l-.005.006L3.95 6.18l.294-.404 3.755 2.728 3.756-2.728.294.404L8.004 9.12l-.005-.006z"/><path fill="#FFF" d="M3.95 4.68h1v1.5h-1z"/><g fill="#FFF"><path d="M10.367 5.7H11l.163-.117C10.553 5.116 9.365 4.8 8 4.8v.5c.959 0 1.803.173 2.367.4zM8 7.3v.5-.5z"/><path d="M11.983 4.987l-.887.645-.622-.167 1.084-.787z"/><path d="M12.05 4.68h-1v1.5h1z"/></g></g></svg>
